X:1
T: Kiss the Maid behind the Barrel
C:
R:Reel
Q: 232
K:G
M:4/4
L:1/8
DG Gc AG GF|DG GB cA GF|DG Gc AG A^c|de fd cA FA|
DG Gc AG GF|DG GB cA GF|DG Gc AG A^c|de fd cA FA|
dg ((3gfg) ag ((3gfg) |dg ((3gfg) ag fe|df ((3gfg) af ((3gfg) |de fd cA FA|
dg ((3gfg) ag ((3gfg) |dg ((3gfg) ag fg|af ge fd e^c|df eg fd cA|
G2 dG BG dG|G2 dG cA FA|G2 dG AG A^c|de fd cA FA|
G2 dG BG dG|G2 dG cA FA|G2 GB A2 A^c|de fd cA FA|
B2 BG A2 Ac|BA Bc de dc|B2 BG A2 A^c|de fd cA FA|
B2 BG A2 Ac|BA Bc de dc|B2 BG A2 A^c|de fd cA G2||
